!!!!SEGMENT: pl-cz--iii-271--004_gotschalk-filip--vesperae-laudate-pueri.krn
!!!cenid: 18xx:134
!!!COM: Gotschalk, Filip
!!!COM-rism: pe30020320
!!!CDT: 1760-1809
!!!CNT:
!!!OTL: Vesperae - Laudate pueri
!!!PDT:
!!!AGN: Sacred; Vespers
!!!SMS-siglum: PL-CZ
!!!SMS-shelfmark: III-271
!!!NIFC-rismID:
!!!URL-scan: http://repozytorium.nifc.pl/skany/pl-cz-nut--iii-271
!!!ONB-nifc:
**kern	**fb	**dynam	**kern	**text	**kern	**text	**kern	**dynam	**kern	**dynam	**kern	**kern
*part7	*	*part7	*part4	*part4	*part3	*part3	*part6	*part6	*part5	*part5	*part2	*part1
*staff7	*	*	*staff4	*staff4	*staff3	*staff3	*staff6	*	*staff5	*	*staff2	*staff1
*I"Organo	*	*	*I"Basso	*	*I"Canto	*	*I"Violino Secondo	*	*I"Violino Primo	*	*I"Cornu Secondo in A	*I"Cornu Primo in A
*I'Org	*	*	*I'B	*	*I'C	*	*I'Vn II	*	*I'Vn I	*	*I'Cor II	*I'Cor I
*clefF4	*	*	*clefF4	*	*clefC1	*	*clefG2	*	*clefG2	*	*clefG2	*clefG2
*ITrd0c0	*	*	*	*	*	*	*	*	*	*	*ITrd2c3	*ITrd2c3
*k[f#c#g#]	*	*	*k[f#c#g#]	*	*k[f#c#g#]	*	*k[f#c#g#]	*	*k[f#c#g#]	*	*k[f#c#g#]	*k[f#c#g#]
*A:	*	*	*A:	*	*A:	*	*A:	*	*A:	*	*	*
*M2/4	*	*	*M2/4	*	*M2/4	*	*M2/4	*	*M2/4	*	*M2/4	*M2/4
=1	=1	=1	=1	=1	=1	=1	=1	=1	=1	=1	=1	=1
!	!	!	!	!	!	!	!	!	!	!	!LO:TX:a:t=problem: część rkp zniszczona, brak nazwy instrumentu	!
*	*	*	*	*	*	*	*2\right	*	*	*	*	*
*	*	*	*	*	*	*	*tremolo	*	*	*	*	*
8AL	.	p	2r	.	2r	.	8eL 8cc#\	.	(>16eeLL	.	2r	2r
.	.	.	.	.	.	.	.	.	16cc#	.	.	.
8A	.	.	.	.	.	.	8e 8cc#	.	16aa	.	.	.
.	.	.	.	.	.	.	.	.	16eeJJ)	.	.	.
8A	.	.	.	.	.	.	8e 8cc#	.	(>16eeLL	.	.	.
.	.	.	.	.	.	.	.	.	16cc#	.	.	.
8AJ	.	.	.	.	.	.	8eJ 8cc#	.	16a	.	.	.
.	.	.	.	.	.	.	.	.	16cc#JJ)	.	.	.
*	*	*	*	*	*	*	*Xtremolo	*	*	*	*	*
=2	=2	=2	=2	=2	=2	=2	=2	=2	=2	=2	=2	=2
!	!	!	!	!	!	!	!	!	!	!	!	!LO:TX:a:B:t=Moderato
8EL	.	.	2r	.	2r	.	8eL 8b	.	(>16ddLL	.	2r	2r
.	.	.	.	.	.	.	.	.	16b	.	.	.
8EJ	.	.	.	.	.	.	8eJ 8b	.	16g#	.	.	.
.	.	.	.	.	.	.	.	.	16bJJ)	.	.	.
16A`LL	.	.	.	.	.	.	16aLL	.	(<16aLL	.	.	.
!	!	!	!	!	!	!	!	!	!LO:TX:a:t=problem:niewyraźna artykulacja	!	!	!
16E`J	.	.	.	.	.	.	16eJ	.	16eJ)	.	.	.
8E`J	.	.	.	.	.	.	8eJ	.	8eJ	.	.	.
=3	=3	=3	=3	=3	=3	=3	=3	=3	=3	=3	=3	=3
!	!	!	!	!	!	!	!LO:TX:a:t=problem: znaki korekty innego skryptora (nieuwzględnione)	!	!	!	!	!
4AA	.	.	2r	.	2r	.	16ALL	.	16c#LL	.	2r	2r
.	.	.	.	.	.	.	16c#	.	16e	.	.	.
.	.	.	.	.	.	.	16d	.	16f#	.	.	.
.	.	.	.	.	.	.	16eJJ	.	16g#JJ	.	.	.
4r	.	.	.	.	.	.	16f#LL	.	16aLL	.	.	.
.	.	.	.	.	.	.	16g#	.	16b	.	.	.
.	.	.	.	.	.	.	16a	.	16cc#	.	.	.
.	.	.	.	.	.	.	16bJJ	.	16ddJJ	.	.	.
=4	=4	=4	=4	=4	=4	=4	=4	=4	=4	=4	=4	=4
8AAL	.	.	2r	.	2r	.	16cc#LL	.	(>16eeLL	.	2r	2r
.	.	.	.	.	.	.	16a	.	16cc#	.	.	.
8DJ	.	.	.	.	.	.	16dd	.	16ff#	.	.	.
.	.	.	.	.	.	.	16bJJ	.	16ddJJ)	.	.	.
8EL	6 4	.	.	.	.	.	8aL	.	8cc#L	.	.	.
8EEJ	5 3	.	.	.	.	.	8g#J	.	8bJ	.	.	.
!	!	!	!	!	!	!	!	!	!LO:LB:g=original	!	!	!
=5	=5	=5	=5	=5	=5	=5	=5	=5	=5	=5	=5	=5
*	*	*	*	*	*	*	*tremolo	*	*	*	*	*
8AAL/	.	.	2r	.	2r	.	8eL 8cc#	.	16eeLL	.	2r	2r
.	.	.	.	.	.	.	.	.	16cc#	.	.	.
8A\	.	.	.	.	.	.	8e 8cc#	.	16aa	.	.	.
.	.	.	.	.	.	.	.	.	16eeJJ	.	.	.
8A\	.	.	.	.	.	.	8e 8cc#	.	16eeLL	.	.	.
.	.	.	.	.	.	.	.	.	16cc#	.	.	.
8AJ\	.	.	.	.	.	.	8eJ 8cc#	.	16a	.	.	.
.	.	.	.	.	.	.	.	.	16cc#JJ	.	.	.
*	*	*	*	*	*	*	*Xtremolo	*	*	*	*	*
=6	=6	=6	=6	=6	=6	=6	=6	=6	=6	=6	=6	=6
8EL	.	.	2r	.	2r	.	8eL 8b	.	16ddLL	.	2r	2r
.	.	.	.	.	.	.	.	.	16b	.	.	.
8EJ	.	.	.	.	.	.	8eJ 8b	.	16g#	.	.	.
.	.	.	.	.	.	.	.	.	16bJJ	.	.	.
16A`LL	.	.	.	.	.	.	16aLL	.	16aLL	.	.	.
16E`J	.	.	.	.	.	.	16eJ	.	16eJ	.	.	.
8E`J	.	.	.	.	.	.	8eJ	.	8eJ	.	.	.
!	!	!	!	!	!	!	!LO:LB:g=original	!	!	!	!	!
=7	=7	=7	=7	=7	=7	=7	=7	=7	=7	=7	=7	=7
8DL/	.	.	2r	.	2r	.	8a	.	16f#LL/	.	2r	2r
.	.	.	.	.	.	.	.	.	16ff#\	.	.	.
8D	.	.	.	.	.	.	4a	.	16ff#\	.	.	.
.	.	.	.	.	.	.	.	.	16ff#JJ\	.	.	.
8C#	6	.	.	.	.	.	.	.	16eeLL	.	.	.
.	.	.	.	.	.	.	.	.	16cc#	.	.	.
8DJ	.	.	.	.	.	.	16aLL	.	16ff#	.	.	.
.	.	.	.	.	.	.	16bJJ	.	16ddJJ	.	.	.
!LO:LB:g=original	!	!	!	!	!	!	!	!	!	!	!	!
=8	=8	=8	=8	=8	=8	=8	=8	=8	=8	=8	=8	=8
8EL\	.	.	2r	.	2r	.	8eL	.	8cc#L	.	2r	2r
8EEJ/	.	.	.	.	.	.	8dJ	.	8bJ	.	.	.
16AALL/	.	.	.	.	.	.	4c#	.	4a\	.	.	.
16A\	.	.	.	.	.	.	.	.	.	.	.	.
16E\	.	.	.	.	.	.	.	.	.	.	.	.
16C#JJ\	.	.	.	.	.	.	.	.	.	.	.	.
=9	=9	=9	=9	=9	=9	=9	=9	=9	=9	=9	=9	=9
!LO:TX:a:t=Tutti	!	!	!	!	!	!	!	!	!	!	!	!
*	*	*	*	*	*	*	*tremolo	*	*	*	*	*
8AAL/	.	.	8A	Sit	4ee	Lau-	8eL 8cc#	.	16eeLL	.	8a	8cc#
.	.	.	.	.	.	.	.	.	16cc#	.	.	.
8A\	.	.	16c#	no-	.	.	8e 8cc#	.	16aa	.	4cc#	4ee
.	.	.	16c#	-men	.	.	.	.	16eeJJ	.	.	.
8A\	.	.	16c#	Do-	16eeLL	-da-	8e 8cc#	.	16eeLL	.	.	.
.	.	.	16c#	-mi-	16cc#JJ	.	.	.	16cc#	.	.	.
8AJ\	.	.	8A	-ni	16aLL	-te	8eJ 8cc#	.	16a	.	8a	8cc#
.	.	.	.	.	16cc#JJ	.	.	.	16cc#JJ	.	.	.
*	*	*	*	*	*	*	*Xtremolo	*	*	*	*	*
=10	=10	=10	=10	=10	=10	=10	=10	=10	=10	=10	=10	=10
8EL	.	.	8E	be-	16ddLL	pu-	8eL 8b	.	16ddLL	.	8bL\	8ddL
.	.	.	.	.	16bJJ	.	.	.	16b	.	.	.
8EJ	.	.	8E	-ne-	16g#	-e-	8eJ 8b	.	16g#	.	8eJ/	16r
.	.	.	.	.	16b	-ri	.	.	16bJJ	.	.	16bJk
16A`LL	.	.	16ALL	-dic-	16a/	Do-	16aLL	.	16aLL	.	16aLL\	16aLL\
16E`J	.	.	16EJJ	.	16e	-mi-	16eJ	.	16eJ	.	16eJ/	16eJ/
8E`J	.	.	8E	-tum,	8e	-ni	8eJ	.	8eJ	.	8eJ/	8eJ/
=11	=11	=11	=11	=11	=11	=11	=11	=11	=11	=11	=11	=11
4AA	.	.	2r	.	2r	.	16ALL	.	16c#LL	.	2r	2r
.	.	.	.	.	.	.	16c#	.	16e	.	.	.
.	.	.	.	.	.	.	16d	.	16f#	.	.	.
.	.	.	.	.	.	.	16eJJ	.	16g#JJ	.	.	.
4r	.	.	.	.	.	.	16f#LL	.	16aLL	.	.	.
.	.	.	.	.	.	.	16g#	.	16b	.	.	.
.	.	.	.	.	.	.	16a	.	16cc#	.	.	.
.	.	.	.	.	.	.	16bJJ	.	16ddJJ	.	.	.
=12	=12	=12	=12	=12	=12	=12	=12	=12	=12	=12	=12	=12
8AAL	.	.	2r	.	2r	.	16cc#LL	.	16eeLL	.	2r	2r
.	.	.	.	.	.	.	16a	.	16cc#	.	.	.
8DJ	.	.	.	.	.	.	16dd	.	16ff#	.	.	.
.	.	.	.	.	.	.	16bJJ	.	16ddJJ	.	.	.
8EL\	6 4	.	.	.	.	.	(<8aL	.	8cc#L	.	.	.
8EEJ/	5 3	.	.	.	.	.	8g#J)	.	8bJ	.	.	.
=13	=13	=13	=13	=13	=13	=13	=13	=13	=13	=13	=13	=13
8AAL/	.	.	8c#	ex	4ee	lau-	8eL 8cc#\	.	16eeLL	.	8a	8cc#
.	.	.	.	.	.	.	.	.	16cc#	.	.	.
8A\	.	.	8c#	hoc	.	.	8eJ 8cc#	.	16aa	.	4cc#	4ee
.	.	.	.	.	.	.	.	.	16eeJJ	.	.	.
!	!	!	!LO:LB:g=original	!	!	!	!	!	!	!	!	!
8A\	.	.	8c#	nunc	8ee	-da-	16cc#LL	.	16eeLL	.	.	.
.	.	.	.	.	.	.	16a	.	16cc#	.	.	.
8AJ\	.	.	8A	et	8cc#	-te	16b	.	16ee	.	8a	8cc#
.	.	.	.	.	.	.	16cc#JJ	.	16eeJJ	.	.	.
!	!	!	!	!	!	!	!	!	!LO:LB:g=original	!	!	!
=14	=14	=14	=14	=14	=14	=14	=14	=14	=14	=14	=14	=14
8DL	.	.	[4d	us-	4ff#	lau-	16ddLL	.	16ff#LL	.	8r	8r
.	.	.	.	.	.	.	16aJJ	.	16dd	.	.	.
8d	.	.	.	.	.	.	8dL 8a	.	16aa	.	4dd	4ff#
.	.	.	.	.	.	.	.	.	16ff#JJ	.	.	.
8d	.	.	8d]	.	8ff#	-da-	8d 8a	.	16ff#LL	.	.	.
.	.	.	.	.	.	.	.	.	16dd	.	.	.
8dJ	.	.	8B	-que	8dd	-te	8dJ 8a	.	16ee	.	16bLL	16ddLL
.	.	.	.	.	.	.	.	.	16ff#JJ	.	16ddJJ	16ff#JJ
=15	=15	=15	=15	=15	=15	=15	=15	=15	=15	=15	=15	=15
!	!	!	!	!	!	!	!	!	!	!	!	!LO:LB:g=original
8AL	.	.	8AL	in	8ee	No-	8e 8cc#\	.	16eeLL	.	8cc#L	8ee
.	.	.	.	.	.	.	.	.	16aa	.	.	.
8d	.	.	8dJ	.	8ff#	-men	4dd	.	16ff#	.	8ddJ	8r
.	.	.	.	.	.	.	.	.	16aaJJ	.	.	.
8e	.	.	8e	sae-	8b	{no-	.	.	16gg#LL	.	8r	8r
.	.	.	.	.	.	.	.	.	16bb	.	.	.
8EJ	.	.	8E	-cu-	8dd	-men}	8e 8b\	.	16ee	.	8e	8b
.	.	.	.	.	.	.	.	.	16gg#JJ	.	.	.
!	!	!	!	!	!	!	!LO:LB:g=original	!	!	!	!LO:LB:g=original	!
=16	=16	=16	=16	=16	=16	=16	=16	=16	=16	=16	=16	=16
*	*	*	*2\right	*	*	*	*	*	*	*	*	*
8AL	.	.	2A	-lum.	8cc#	Do-	8eL 8cc#	.	8aaL	.	8c#L	8aL
8EJ	.	.	.	.	8cc#	-mi-	8eJ 8cc#	.	8aaJ	.	8c#J	8aJ
4AA	.	.	.	.	4cc#	-ni.	4e 4cc#	.	4aa	.	4c#	4a
!	!	!	!	!	!LO:LB:g=original	!	!	!	!	!	!	!
=17	=17	=17	=17	=17	=17	=17	=17	=17	=17	=17	=17	=17
!	!	!	!	!	!LO:TX:a:t=solo	!	!	!LO:HP:t=pia	!	!LO:HP:t=pia	!	!
8r	.	.	8.A	Sus-	8.cc#L	quis	8.eL	p	8.cc#L	p	2r	2r
16ALL	.	p	.	.	.	.	.	.	.	.	.	.
16G#XJJ	.	.	16E	-ci-	16bJk	.	16dJk	.	16bJk	.	.	.
8AL\	.	.	8A	-tans	16aLL	si-	16c#LL	.	16aLL	.	.	.
.	.	.	.	.	16cc#JJ	.	16a	.	16cc#	.	.	.
8AAJ/	.	.	16c#LL	a	16eeLL	-cut	16cc#	.	16ee	.	.	.
.	.	.	16AJJ	.	16cc#JJ	.	16aJJ	.	16cc#JJ	.	.	.
=18	=18	=18	=18	=18	=18	=18	=18	=18	=18	=18	=18	=18
.	.	.	.	.	.	.	.	.	8qcc#/	.	.	.
8EL	.	.	8AL	ter-	16cc#LL	Do-	8g#L	.	8bL	.	2r	2r
.	.	.	.	.	16bJJ	.	.	.	.	.	.	.
8EJ	.	.	16G#L	.	8b	-mi-	8g#J	.	8bJ	.	.	.
.	.	.	16EJJ	.	.	.	.	.	.	.	.	.
16EELL/	.	.	4E	-ra	4b	-nus	4g#	.	4b	.	.	.
16E\	.	.	.	.	.	.	.	.	.	.	.	.
16D#X\	.	.	.	.	.	.	.	.	.	.	.	.
16EJJ\	.	.	.	.	.	.	.	.	.	.	.	.
!LO:LB:g=original	!	!	!	!	!	!	!	!	!	!	!	!
=19	=19	=19	=19	=19	=19	=19	=19	=19	=19	=19	=19	=19
8r	.	.	8.BL	in-	8.dd	De-	8.bL	.	8.ddL	.	2r	2r
8EL	.	.	.	.	.	.	.	.	.	.	.	.
.	.	.	16AJk	.	16cc#	-us	16aJk	.	16cc#Jk	.	.	.
8G#	.	.	16G#LL	-o-	16bLL	De-	16g#LL	.	16bLL	.	.	.
.	.	.	16BJJ	.	16ddJJ	.	16b	.	16dd	.	.	.
8EJ	.	.	16d	-pem	16ff#LL	-us	16dd	.	16ff#	.	.	.
.	.	.	16B	in-	16ddJJ	.	16bJJ	.	16ddJJ	.	.	.
=20	=20	=20	=20	=20	=20	=20	=20	=20	=20	=20	=20	=20
!	!	!	!	!	!	!	!	!	!LO:TX:a:t=problem: w rękopisie brak przekreślenia	!	!	!
.	.	.	.	.	.	.	.	.	8qdd	.	.	.
16ALL\	.	.	4A	-o-	4cc#	nos-	8eL 8a	.	8cc#L	.	2r	2r
16AA/	.	.	.	.	.	.	.	.	.	.	.	.
16C#/	.	.	.	.	.	.	8eJ 8a	.	8cc#J	.	.	.
16EJJ/	.	.	.	.	.	.	.	.	.	.	.	.
16AL	.	.	4A	-pem	4cc#	-ter	4e 4a	.	4cc#	.	.	.
16EJ	.	.	.	.	.	.	.	.	.	.	.	.
16C#L	.	.	.	.	.	.	.	.	.	.	.	.
16AAJ	.	.	.	.	.	.	.	.	.	.	.	.
!	!	!	!LO:LB:g=original	!	!	!	!	!	!	!	!	!
=21	=21	=21	=21	=21	=21	=21	=21	=21	=21	=21	=21	=21
8AAL/	.	.	8.c#	et	8.ee	qui	8.cc#L	.	8.eeL	.	2r	2r
8A\	.	.	.	.	.	.	.	.	.	.	.	.
.	.	.	16B	de	16dd	in	16bJk	.	16ddJk	.	.	.
8A\	.	.	8A	ster-	8cc#	al-	16aLL\	.	16cc#`LL	.	.	.
.	.	.	.	.	.	.	16a	.	(>16cc#	.	.	.
8AJ\	.	.	16B	-co-	(>16ddLL	-tis	16b	.	16dd	.	.	.
.	.	.	16c#	-re	16eeJJ)	.	16cc#JJ	.	16eeJJ)	.	.	.
=22	=22	=22	=22	=22	=22	=22	=22	=22	=22	=22	=22	=22
8DL/	.	.	16d	e-	8.ff#	ha-	8.ddL	.	8.ff#L	.	2r	2r
.	.	.	16d	-ri-	.	.	.	.	.	.	.	.
8d/	.	.	8c#	-gens	.	.	.	.	.	.	.	.
.	.	.	.	.	16ee	-bi-	16cc#Jk	.	16eeJk	.	.	.
8d/	.	.	16B	pau-	4dd	-tat,	16bLL	.	16dd`LL	.	.	.
.	.	.	16B	-pe-	.	.	16b	.	(>16dd	.	.	.
8DJ\	.	.	8B	-rem.	.	.	16cc#	.	16ee	.	.	.
.	.	.	.	.	.	.	16ddJJ	.	16ff#JJ)	.	.	.
!	!	!	!	!	!	!	!	!	!LO:LB:g=original	!	!	!
=23	=23	=23	=23	=23	=23	=23	=23	=23	=23	=23	=23	=23
8AL	.	.	2r	.	2r	.	16cc#LL	.	16eeLL	.	4r	4r
.	.	.	.	.	.	.	16ff#	.	16aa	.	.	.
8c#J	.	.	.	.	.	.	16ff#	.	16aa	.	.	.
.	.	.	.	.	.	.	16eeJJ	.	16gg#JJ	.	.	.
8dL	.	.	.	.	.	.	16ddLL	.	16ff#LL	.	8r	8r
.	.	.	.	.	.	.	16cc#	.	16ee	.	.	.
16r	.	.	.	.	.	.	16b	.	16dd	.	8a	8cc#
16d#XJk	7 5	.	.	.	.	.	16aJJ	.	16cc#JJ	.	.	.
!	!	!	!	!	!	!	!LO:LB:g=original	!	!	!	!	!
=24	=24	=24	=24	=24	=24	=24	=24	=24	=24	=24	=24	=24
16eLL	6 4	.	2r	.	2r	.	4a	.	4cc#	.	4a	4cc#
16d#X	.	.	.	.	.	.	.	.	.	.	.	.
16e	.	.	.	.	.	.	.	.	.	.	.	.
16d#JJ	.	.	.	.	.	.	.	.	.	.	.	.
16eLL	5 3	.	.	.	.	.	(<16g#LL	.	4b	.	4e	4b
16dn	.	.	.	.	.	.	16f#	.	.	.	.	.
16c#	.	.	.	.	.	.	16e	.	.	.	.	.
16BJJ	.	.	.	.	.	.	16dJJ)	.	.	.	.	.
=25	=25	=25	=25	=25	=25	=25	=25	=25	=25	=25	=25	=25
8r	.	.	8r	.	16cc#LL	et	8eL	.	(>16cc#LL	.	4r	4r
.	.	.	.	.	16dd	.	.	.	16dd	.	.	.
8AL\	.	.	16A	Ut	16cc#	.	8dJ	.	16cc#	.	.	.
.	.	.	16E	col-	16bJJ	.	.	.	16bJJ)	.	.	.
8A\	.	.	8A	-lo-	16aLL	hu-	16c#LL	.	(>16aLL	.	8r	8r
.	.	.	.	.	16cc#	.	16a	.	16cc#	.	.	.
8AAJ/	.	.	8A	-cet	16ee	.	16cc#	.	16ee	.	8a	8cc#
.	.	.	.	.	16cc#JJ	.	16aJJ	.	16cc#JJ)	.	.	.
=26	=26	=26	=26	=26	=26	=26	=26	=26	=26	=26	=26	=26
8EL	.	.	8E	e-	16cc#LL	-mi-	16aLL	.	16cc#LL	.	16aLL\	16cc#LL
.	.	.	.	.	16bJJ	.	16g#J	.	16bJ	.	16eJ/	16bJ
8EJ	.	.	8E	-um	8b	-li-	8g#J	.	8bJ	.	8eJ/	8bJ
16EELL/	.	.	4r	.	4b	-a	4g#	.	4b	.	4e	4b
16E\	.	.	.	.	.	.	.	.	.	.	.	.
16D#X\	.	.	.	.	.	.	.	.	.	.	.	.
16EJJ\	.	.	.	.	.	.	.	.	.	.	.	.
!	!	!	!	!	!LO:PB:g=original	!	!	!	!	!	!	!
=27	=27	=27	=27	=27	=27	=27	=27	=27	=27	=27	=27	=27
8r	.	.	16BLL	cum	16ddLL	res-	(>16bLL	.	16ddLL	.	4r	4r
.	.	.	16c#	.	16eeJJ	.	16cc#	.	16ee	.	.	.
8EL	.	.	16B	.	16ddLL	-pi-	16b	.	16dd	.	.	.
.	.	.	16AJJ	.	16cc#JJ	.	16aJJ)	.	16cc#JJ	.	.	.
8E	.	.	16G#LL	prin-	16bLL	-cit	16g#LL	.	16bLL	.	8r	8r
.	.	.	16BJJ	.	16ddJJ	.	16bJJ	.	16dd	.	.	.
8G#J	6 5	.	16dLL	.	16ff#LL	in	16ddLL	.	16ff#	.	8b	8dd
.	.	.	16BJJ	.	16ddJJ	.	16bJJ	.	16ddJJ	.	.	.
!LO:LB:g=original	!	!	!LO:LB:g=original	!	!	!	!	!	!	!	!	!
=28	=28	=28	=28	=28	=28	=28	=28	=28	=28	=28	=28	=28
8AL	.	.	16BLL	-ci-	8ddL	cae-	16bLL	.	(>16ddLL	.	16bLL	16ddLL
.	.	.	16AJJ	.	.	.	16aJ	.	16cc#J)	.	16aJ	16cc#J
8EJ	.	.	8A	-pi-	8cc#J	.	8aJ	.	8cc#`J	.	8aJ	8cc#J
16AALL	.	.	4A	-o	4cc#	-lo	4a	.	4cc#	.	4a	4cc#
16AA	.	.	.	.	.	.	.	.	.	.	.	.
16C#	.	.	.	.	.	.	.	.	.	.	.	.
16EJJ	.	.	.	.	.	.	.	.	.	.	.	.
=29	=29	=29	=29	=29	=29	=29	=29	=29	=29	=29	=29	=29
8AL\	.	.	2r	.	16eeLL	et	8eL 8cc#	.	(>16eeLL	.	2r	2r
.	.	.	.	.	16ff#JJ	.	.	.	16ff#	.	.	.
8E\	5	.	.	.	16eeLL	in	8e 8cc#	.	16ee	.	.	.
.	.	.	.	.	16ddJJ	.	.	.	16ddJJ)	.	.	.
8AAJ/	.	.	.	.	8cc#L	ter-	8eJ 8cc#	.	(>16cc#LL	.	.	.
.	.	.	.	.	.	.	.	.	16ee	.	.	.
8r	.	.	.	.	8cc#J	-ra	8r	.	16aa	.	.	.
.	.	.	.	.	.	.	.	.	16gg#JJ)	.	.	.
=30	=30	=30	=30	=30	=30	=30	=30	=30	=30	=30	=30	=30
8BL\	#	.	2r	.	16ff#LL	et	8f#L 8dd#X\	.	(>16ff#LL	.	2r	2r
.	.	.	.	.	16gg#JJ	.	.	.	16gg#	.	.	.
8F#\	5 #	.	.	.	16ff#LL	in	8f# 8dd#	.	16ff#	.	.	.
.	.	.	.	.	16eeJJ	.	.	.	16eeJJ)	.	.	.
8BBJ/	.	.	.	.	8dd#X	ter-	8f#J 8dd#	.	(>16dd#XLL	.	.	.
.	.	.	.	.	.	.	.	.	16ff#	.	.	.
8r	.	.	.	.	8dd#	-ra	8r	.	16bb	.	.	.
.	.	.	.	.	.	.	.	.	16aaJJ)	.	.	.
=31	=31	=31	=31	=31	=31	=31	=31	=31	=31	=31	=31	=31
4E	.	.	2r	.	2r	.	8g# 8b	.	(>16aaLL	.	2r	2r
.	.	.	.	.	.	.	.	.	16gg#	.	.	.
.	.	.	.	.	.	.	8r	.	16ff#	.	.	.
.	.	.	.	.	.	.	.	.	16eeJJ)	.	.	.
!	!	!	!	!	!	!	!	!	!LO:LB:g=original	!	!	!
4r	.	.	.	.	.	.	4r	.	16eeLL	.	.	.
.	.	.	.	.	.	.	.	.	16dd	.	.	.
.	.	.	.	.	.	.	.	.	16cc#	.	.	.
.	.	.	.	.	.	.	.	.	16bJJ	.	.	.
!	!	!	!	!	!	!	!LO:LB:g=original	!	!	!	!	!
=32	=32	=32	=32	=32	=32	=32	=32	=32	=32	=32	=32	=32
8r	.	.	2r	.	2r	.	8r	.	4.b	.	2r	2r
8D#XL	6_	.	.	.	.	.	8f#L	.	.	.	.	.
8C#	.	.	.	.	.	.	8e	.	.	.	.	.
8BBJ	7 #	.	.	.	.	.	8d#XJ	.	8a\	.	.	.
=33	=33	=33	=33	=33	=33	=33	=33	=33	=33	=33	=33	=33
4E	.	.	2r	.	4b	qui	8B	.	16g#LL	.	2r	2r
.	.	.	.	.	.	.	.	.	16b	.	.	.
.	.	.	.	.	.	.	8r	.	16ee	.	.	.
.	.	.	.	.	.	.	.	.	16gg#JJ	.	.	.
4r	.	.	.	.	8b	ha-	4r	.	16ff#LL	.	.	.
.	.	.	.	.	.	.	.	.	16dd#X	.	.	.
.	.	.	.	.	16bLL	-bi-	.	.	16ee	.	.	.
.	.	.	.	.	16cc#JJ	.	.	.	16cc#JJ	.	.	.
=34	=34	=34	=34	=34	=34	=34	=34	=34	=34	=34	=34	=34
8r	.	.	2r	.	16bLL	-ta-	8r	.	16bLL	.	2r	2r
.	.	.	.	.	16aJJ	.	.	.	16aJJ	.	.	.
8BBL	8_ #	.	.	.	8a	-re	8d#XL	.	4a	.	.	.
8C#	_ 3	.	.	.	16dd#XLL	fa-	8e	.	.	.	.	.
.	.	.	.	.	16ff#JJ	.	.	.	.	.	.	.
8D#XJ	6 5	.	.	.	16f#LL/	-cit	8f#J	.	8a	.	.	.
.	.	.	.	.	16aJJ	.	.	.	.	.	.	.
!	!	!	!	!	!	!	!	!	!	!	!	!LO:PB:g=original
=35	=35	=35	=35	=35	=35	=35	=35	=35	=35	=35	=35	=35
8E	.	.	2r	.	16g#LL	fa-	8B	.	16g#LL	.	8r	8r
.	.	.	.	.	16b	.	.	.	16b	.	.	.
8r	.	.	.	.	16dd#X	.	8r	.	16dd#X	.	8eL	8bL
.	.	.	.	.	16eeJJ	.	.	.	16eeJJ	.	.	.
16G#LL	3	.	.	.	8b	-cit	16bLL	.	8b	.	8eJ	8bJ
16F#	3	.	.	.	.	.	16a	.	.	.	.	.
16G#	3	.	.	.	8r	.	16b	.	8r	.	8r	8r
16EJJ	3	.	.	.	.	.	16g#JJ	.	.	.	.	.
!	!	!	!	!	!LO:LB:g=original	!	!	!	!	!	!	!
=36	=36	=36	=36	=36	=36	=36	=36	=36	=36	=36	=36	=36
*2\right	*	*	*	*	*	*	*	*	*	*	*	*
*tremolo	*	*	*	*	*	*	*tremolo	*	*	*	*	*
8D#XL	.	.	2r	.	16bLL	ste-	8f#L	.	(<16bLL	.	2r	2r
.	.	.	.	.	16aJJ	.	.	.	16a	.	.	.
8D#	.	.	.	.	16g#LL	-ri-	8f#	.	16g#	.	.	.
.	.	.	.	.	16aJJ	.	.	.	16aJJ)	.	.	.
8D#	.	.	.	.	8a	-lem	8f#	.	16dd#XLL\	.	.	.
.	.	.	.	.	.	.	.	.	16ff#\	.	.	.
8D#J	.	.	.	.	8a	in	8f#J	.	16f#/	.	.	.
.	.	.	.	.	.	.	.	.	16aJJ/	.	.	.
*Xtremolo	*	*	*	*	*	*	*Xtremolo	*	*	*	*	*
!	!	!	!	!	!	!	!	!	!	!	!LO:LB:g=original	!
=37	=37	=37	=37	=37	=37	=37	=37	=37	=37	=37	=37	=37
!	!	!	!	!	!	!	!	!	!LO:TX:a:t=problem: brak oznaczenia trioli	!	!	!
8E	.	.	2r	.	16g#LL	do-	8B 8g#	.	24g#LL	.	8r	8r
.	.	.	.	.	.	.	.	.	24a	.	.	.
.	.	.	.	.	16bJJ	.	.	.	.	.	.	.
.	.	.	.	.	.	.	.	.	24bJJ	.	.	.
!	!	!	!	!	!	!	!	!	!LO:TX:a:t=problem: brak oznaczenia trioli	!	!	!
8r	.	.	.	.	8b	-mo,	8r	.	24cc#LL	.	16eLL	16bLL
.	.	.	.	.	.	.	.	.	24dd#X	.	.	.
.	.	.	.	.	.	.	.	.	.	.	16eJJ	16bJJ
.	.	.	.	.	.	.	.	.	24eeJJ	.	.	.
16G#LL	3	.	.	.	4r	.	16bLL	.	8b	.	4e	8b
16F#	3	.	.	.	.	.	16a	.	.	.	.	.
16G#	3	.	.	.	.	.	16b	.	8r	.	.	8r
16EJJ	3	.	.	.	.	.	16g#JJ	.	.	.	.	.
=38	=38	=38	=38	=38	=38	=38	=38	=38	=38	=38	=38	=38
*tremolo	*	*	*	*	*	*	*tremolo	*	*	*	*	*
8D#XL	6 5	.	2r	.	2r	.	8f#L	.	16bLL	.	2r	2r
.	.	.	.	.	.	.	.	.	16a	.	.	.
8D#	.	.	.	.	.	.	8f#	.	16g#	.	.	.
.	.	.	.	.	.	.	.	.	16aJJ	.	.	.
!	!	!	!	!	!	!	!	!	!LO:TX:a:t=problem: brak oznaczenia trioli	!	!	!
8D#	.	.	.	.	.	.	8f#	.	24dd#XLL	.	.	.
.	.	.	.	.	.	.	.	.	24ee	.	.	.
.	.	.	.	.	.	.	.	.	24ff#JJ	.	.	.
!	!	!	!	!	!	!	!	!	!LO:TX:a:t=problem: brak oznaczenia trioli	!	!	!
8D#J	.	.	.	.	.	.	8f#J	.	24f#LL	.	.	.
.	.	.	.	.	.	.	.	.	24g#	.	.	.
.	.	.	.	.	.	.	.	.	24aJJ	.	.	.
!LO:PB:g=original	!	!	!	!	!	!	!	!	!LO:PB:g=original	!	!	!
*Xtremolo	*	*	*	*	*	*	*Xtremolo	*	*	*	*	*
=39	=39	=39	=39	=39	=39	=39	=39	=39	=39	=39	=39	=39
!	!	!	!	!	!	!	!LO:TX:a:t=problem: brak oznaczenia trioli	!	!LO:TX:a:t=problem: brak oznaczenia trioli	!	!	!
4E	.	.	2r	.	2r	.	24eLL	.	24g#LL	.	2r	2r
.	.	.	.	.	.	.	24f#	.	24a	.	.	.
.	.	.	.	.	.	.	24g#JJ	.	24bJJ	.	.	.
.	.	.	.	.	.	.	4g#	.	4b	.	.	.
4r	.	.	.	.	.	.	.	.	.	.	.	.
.	.	.	.	.	.	.	8a	.	8cc#	.	.	.
=40	=40	=40	=40	=40	=40	=40	=40	=40	=40	=40	=40	=40
8r	.	.	16dLL	po-	2r	.	16bLL	.	16ddnLL	.	2r	2r
.	.	.	16c#	.	.	.	16a	.	16cc#	.	.	.
8EL	8_	.	16B	.	.	.	16g#	.	16b	.	.	.
.	.	.	16AJJ	.	.	.	16f#JJ	.	16aJJ	.	.	.
8F#	.	.	16G#LL	.	.	.	16eLL	.	16g#LL	.	.	.
.	.	.	16F#JJ	.	.	.	16d	.	16f#	.	.	.
8G#J	6 5	.	16E	-pu-	.	.	16c#	.	16e	.	.	.
.	.	.	16D	-li	.	.	16BJJ	.	16dJJ	.	.	.
!	!	!	!	!	!	!	!LO:LB:g=original	!	!	!	!	!
=41	=41	=41	=41	=41	=41	=41	=41	=41	=41	=41	=41	=41
!	!	!	!LO:TX:a:t=problem: brak oznaczenia trioli	!	!	!	!LO:TX:a:t=problem: brak oznaczenia trioli	!	!LO:TX:a:t=problem: brak oznaczenia trioli	!LO:DY:a	!	!
8AL\	.	.	24C#LL/	su-	4r	.	24ALL	.	24c#LL	p	2r	2r
.	.	.	24D	.	.	.	24B	.	24d	.	.	.
.	.	.	24EJJ	.	.	.	24c#JJ	.	24eJJ	.	.	.
8AA/	.	.	8E/	-i.	.	.	16c#LL	.	16eLL	.	.	.
.	.	.	.	.	.	.	16c#JJ	.	16eJJ	.	.	.
!	!	!	!	!	!LO:TX:s:t=Soloa	!	!	!	!	!	!	!
8AA/	.	.	4r	.	8ee	Mat-	16c#LL	.	16eLL	.	.	.
.	.	.	.	.	.	.	16e	.	16a	.	.	.
8AAJ/	.	.	.	.	8cc#	-rem	16c#	.	16e	.	.	.
.	.	.	.	.	.	.	16AJJ	.	16c#JJ	.	.	.
=42	=42	=42	=42	=42	=42	=42	=42	=42	=42	=42	=42	=42
8EL\	7_	.	16c#LL	fi-	16eeLL	fi-	(<16c#LL	.	(<16eLL	.	2r	2r
.	.	.	16BJJ	.	16ddJJ	.	16B)	.	16d)	.	.	.
8EE/	.	.	8B	-li-	8dd	-li-	16B'	.	16d'	.	.	.
.	.	.	.	.	.	.	16B'JJ	.	16d'JJ	.	.	.
8EE/	X	.	8B	-o-	8dd	-o-	16BLL	.	16dLL	.	.	.
.	.	.	.	.	.	.	16dJ	.	16b	.	.	.
8EEJ/	.	.	8B	-rum	8dd	-rum	8BJ	.	16g#	.	.	.
.	.	.	.	.	.	.	.	.	16dJJ	.	.	.
=43	=43	=43	=43	=43	=43	=43	=43	=43	=43	=43	=43	=43
8AAL/	.	.	2r	.	2r	.	16ALL	.	16c#LL	.	2r	2r
.	.	.	.	.	.	.	16c#	.	16e	.	.	.
8A\	.	.	.	.	.	.	16e	.	16a	.	.	.
.	.	.	.	.	.	.	16aJJ	.	16cc#JJ	.	.	.
8A\	.	.	.	.	.	.	16cc#LL	.	16eeLL	.	.	.
.	.	.	.	.	.	.	16ee	.	16aa	.	.	.
8AJ\	.	.	.	.	.	.	16cc#	.	16ee	.	.	.
.	.	.	.	.	.	.	16aJJ	.	16cc#JJ	.	.	.
=44	=44	=44	=44	=44	=44	=44	=44	=44	=44	=44	=44	=44
8EL	7_	.	16c#LL	lae-	16eeLL	lae-	16cc#LL	.	16eeLL	.	2r	2r
.	.	.	16B	.	16dd	.	16b	.	16dd	.	.	.
8E	.	.	16A	.	16cc#	.	16a	.	16cc#	.	.	.
.	.	.	16BJJ	.	16ddJJ	.	16bJJ	.	16ddJJ	.	.	.
8E	.	.	8B	-tan-	8dd	-tan-	8g#L 8b	.	16ddLL	.	.	.
.	.	.	.	.	.	.	.	.	16bb	.	.	.
8eJ	x	.	8E	-tem	8b	-tem	8g#J 8b	.	16b	.	.	.
.	.	.	.	.	.	.	.	.	16ddJJ	.	.	.
!	!	!	!LO:LB:g=original	!	!	!	!	!	!	!	!	!
=45	=45	=45	=45	=45	=45	=45	=45	=45	=45	=45	=45	=45
4A	.	.	4r	.	4r	.	16aLL	.	(>16cc#LL	.	2r	2r
.	.	.	.	.	.	.	16cc#	.	16ee	.	.	.
.	.	.	.	.	.	.	16b	.	16gg#	.	.	.
.	.	.	.	.	.	.	16cc#JJ	.	16aaJJ)	.	.	.
8DL	.	.	8r	.	8r	.	16ddLL	.	(>16ff#LL	.	.	.
.	.	.	.	.	.	.	16cc#	.	16ee	.	.	.
16r	.	.	16r	.	16r	.	16b	.	16dd	.	.	.
16D#XJk	7 5	.	16A	lae-	16cc#	lae-	16aJJ	.	16cc#JJ)	.	.	.
!	!	!	!	!	!	!	!	!	!LO:LB:g=original	!	!	!
=46	=46	=46	=46	=46	=46	=46	=46	=46	=46	=46	=46	=46
16ELL	6_ 4_	.	4A	-tan-	4cc#	-tan-	4a	.	4cc#	.	2r	2r
16D#X	.	.	.	.	.	.	.	.	.	.	.	.
16E	x	.	.	.	.	.	.	.	.	.	.	.
16D#JJ	.	.	.	.	.	.	.	.	.	.	.	.
16ELL\	.	.	4E	-tem.	4b	-tem.	4g#	.	4b	.	.	.
16Dn	.	.	.	.	.	.	.	.	.	.	.	.
16C#	.	.	.	.	.	.	.	.	.	.	.	.
16BBJJ	.	.	.	.	.	.	.	.	.	.	.	.
!	!	!	!	!	!LO:LB:g=original	!	!	!	!	!	!	!
=47	=47	=47	=47	=47	=47	=47	=47	=47	=47	=47	=47	=47
!LO:TX:a:t=Tutti	!	!	!	!	!	!	!	!LO:HP:t=for	!	!LO:HP:t=for	!	!
8AAL/	.	.	8c#	Si-	8ee	Glo-	8eL 8cc#\	f	16eeLL	f	8a	8cc#
.	.	.	.	.	.	.	.	.	16cc#	.	.	.
8A\	.	.	8c#	-cut	16ee	-ri-	8e 8cc#	.	16aa	.	4cc#	4ee
.	.	.	.	.	16ee	-a	.	.	16eeJJ	.	.	.
8A\	.	.	8c#	e-	16eeLL	Pat-	8e 8cc#	.	16eeLL	.	.	.
.	.	.	.	.	16cc#JJ	.	.	.	16cc#	.	.	.
8AJ\	.	.	8A	-rat	16aLL	-ri	8eJ 8cc#	.	16a	.	8a	8cc#
.	.	.	.	.	16cc#JJ	.	.	.	16cc#JJ	.	.	.
!	!	!	!	!	!	!	!LO:PB:g=original	!	!	!	!	!
=48	=48	=48	=48	=48	=48	=48	=48	=48	=48	=48	=48	=48
8EL	.	.	8E	in	16ddLL	Pat-	8eL 8b	.	16ddLL	.	8bL\	8.ddL
.	.	.	.	.	16bJJ	.	.	.	16b	.	.	.
8EJ	.	.	8E	prin-	16g#/	-ri,	8eJ 8b	.	16g#	.	8eJ/	.
.	.	.	.	.	16b/	et	.	.	16bJJ	.	.	16bJk
16A`LL	.	.	16A	-ci-	16a/	fi-	16aLL	.	16aLL	.	16aLL\	(>16aLL\
16E`J	.	.	16E	-pi-	16e/	-li-	16eJ	.	16eJ	.	16eJ/	16eJ)
8E`J	.	.	8E	-o,	8e/	-o	8eJ	.	8eJ	.	8eJ/	8e`J
=49	=49	=49	=49	=49	=49	=49	=49	=49	=49	=49	=49	=49
4AA	.	.	2r	.	2r	.	16ALL	.	16c#LL	.	2r	2r
.	.	.	.	.	.	.	16c#	.	16e	.	.	.
.	.	.	.	.	.	.	16d	.	16f#	.	.	.
.	.	.	.	.	.	.	16eJJ	.	16g#JJ	.	.	.
4r	.	.	.	.	.	.	16f#LL	.	16aLL	.	.	.
.	.	.	.	.	.	.	16g#	.	16b	.	.	.
.	.	.	.	.	.	.	16a	.	16cc#	.	.	.
.	.	.	.	.	.	.	16bJJ	.	16ddJJ	.	.	.
!LO:LB:g=original	!	!	!	!	!	!	!	!	!	!	!	!
=50	=50	=50	=50	=50	=50	=50	=50	=50	=50	=50	=50	=50
8AAL	.	.	2r	.	2r	.	16cc#LL	.	16eeLL	.	2r	2r
.	.	.	.	.	.	.	16a	.	16cc#	.	.	.
8DJ	.	.	.	.	.	.	16dd	.	16ff#	.	.	.
.	.	.	.	.	.	.	16bJJ	.	16ddJJ	.	.	.
8EL\	6 4	.	.	.	.	.	8aL	.	8cc#L	.	.	.
8EEJ/	5 3	.	.	.	.	.	8g#J	.	8bJ	.	.	.
=51	=51	=51	=51	=51	=51	=51	=51	=51	=51	=51	=51	=51
*	*	*	*	*	*	*	*tremolo	*	*	*	*	*
8AAL/	.	.	4A	et	4ee	et	8eL 8cc#	.	16eeLL	.	8a	8cc#
.	.	.	.	.	.	.	.	.	16cc#	.	.	.
8A\	.	.	.	.	.	.	8e 8cc#	.	16aa	.	4cc#	4ee
.	.	.	.	.	.	.	.	.	16eeJJ	.	.	.
8A\	.	.	8c#	nunc	(>16eeLL	.	8e 8cc#	.	16eeLL	.	.	.
.	.	.	.	.	16cc#JJ)	.	.	.	16cc#	.	.	.
8AJ\	.	.	8A	et	16aLL	spi-	8eJ 8cc#	.	16a	.	8a	8cc#
.	.	.	.	.	16cc#JJ	.	.	.	16cc#JJ	.	.	.
*	*	*	*	*	*	*	*Xtremolo	*	*	*	*	*
=52	=52	=52	=52	=52	=52	=52	=52	=52	=52	=52	=52	=52
8EL	.	.	16c#LL	sem-	16ddLL	-ri-	8eL 8b	.	(>16ddLL	.	8bL\	8.ddL
.	.	.	16BJJ	.	16bJJ	.	.	.	16b	.	.	.
8EJ	.	.	16E	-per	16g#	-tu-	8eJ 8b	.	16g#	.	8eJ/	.
.	.	.	16E	et	16b	-i	.	.	16bJJ)	.	.	16bJk
16A`LL	.	.	16ALL	sem-	16aLL	San-	16aLL	.	16aLL	.	16aLL\	16aLL\
16E`J	.	.	16EJJ	.	16eJ	.	16eJ	.	16eJ	.	16eJ/	16eJ/
8E`J	.	.	8E	-per	8eJ	-cto	8eJ	.	8eJ	.	8eJ/	8eJ/
!	!	!	!	!	!	!	!	!	!	!	!	!LO:LB:g=original
=53	=53	=53	=53	=53	=53	=53	=53	=53	=53	=53	=53	=53
4D	.	.	2r	.	2r	.	(<16dLL	.	(<16f#LL	.	2r	2r
.	.	.	.	.	.	.	16f#	.	16a	.	.	.
.	.	.	.	.	.	.	16e	.	16g#	.	.	.
.	.	.	.	.	.	.	16g#JJ)	.	16bJJ)	.	.	.
4r	.	.	.	.	.	.	(<16f#LL	.	(>16aLL	.	.	.
.	.	.	.	.	.	.	16a	.	16cc#	.	.	.
.	.	.	.	.	.	.	16g#	.	16b	.	.	.
.	.	.	.	.	.	.	16bJJ)	.	16ddJJ)	.	.	.
!	!	!	!	!	!	!	!	!	!LO:LB:g=original	!	!	!
=54	=54	=54	=54	=54	=54	=54	=54	=54	=54	=54	=54	=54
4A	.	.	2r	.	2r	.	(>16aLL	.	16cc#LL	.	2r	2r
.	.	.	.	.	.	.	16cc#	.	16ee	.	.	.
.	.	.	.	.	.	.	16b	.	16dd	.	.	.
.	.	.	.	.	.	.	16ddJJ)	.	16ff#JJ	.	.	.
16r	.	.	.	.	.	.	16r	.	4ee	.	.	.
16ALL	3	.	.	.	.	.	16cc#LL	.	.	.	.	.
16G#	3	.	.	.	.	.	16b	.	.	.	.	.
16BJJ	3	.	.	.	.	.	16ddJJ	.	.	.	.	.
!	!	!	!	!	!	!	!LO:LB:g=original	!	!	!	!	!
=55	=55	=55	=55	=55	=55	=55	=55	=55	=55	=55	=55	=55
4A	.	.	2r	.	2r	.	4cc#	.	16eeLL	.	2r	2r
.	.	.	.	.	.	.	.	.	16cc#	.	.	.
.	.	.	.	.	.	.	.	.	16dd	.	.	.
.	.	.	.	.	.	.	.	.	16ff#JJ	.	.	.
16r	.	.	.	.	.	.	16r	.	4ee	.	.	.
16ALL	3	.	.	.	.	.	16cc#LL	.	.	.	.	.
16G#	3	.	.	.	.	.	16b	.	.	.	.	.
16BJJ	3	.	.	.	.	.	16ddJJ	.	.	.	.	.
=56	=56	=56	=56	=56	=56	=56	=56	=56	=56	=56	=56	=56
8A	.	.	2r	.	2r	.	16cc#LL	.	16eeLL	.	2r	2r
.	.	.	.	.	.	.	16ff#	.	16aa	.	.	.
8r	.	.	.	.	.	.	16ee	.	16gg#	.	.	.
.	.	.	.	.	.	.	16ddJJ	.	16ff#JJ	.	.	.
8AA	.	.	.	.	.	.	16cc#LL	.	16eeLL	.	.	.
.	.	.	.	.	.	.	16aa	.	16ccc#	.	.	.
8r	.	.	.	.	.	.	16gg#	.	16bb	.	.	.
.	.	.	.	.	.	.	16ff#JJ	.	16aaJJ	.	.	.
=57	=57	=57	=57	=57	=57	=57	=57	=57	=57	=57	=57	=57
8AAL	.	.	2r	.	2r	.	16eeLL	.	16gg#LL	.	2r	2r
.	.	.	.	.	.	.	16dd	.	16ff#	.	.	.
8DJ	.	.	.	.	.	.	16cc#	.	16ee	.	.	.
.	.	.	.	.	.	.	16bJJ	.	16ddJJ	.	.	.
8EL\	6 4	.	.	.	.	.	8aL	.	8cc#L	.	.	.
8EEJ/	5 3	.	.	.	.	.	8g#J	.	8bJ	.	.	.
=58	=58	=58	=58	=58	=58	=58	=58	=58	=58	=58	=58	=58
4AA	.	.	2r	.	2r	.	4a	.	16aLL	.	2r	2r
.	.	.	.	.	.	.	.	.	16e	.	.	.
.	.	.	.	.	.	.	.	.	16f#	.	.	.
.	.	.	.	.	.	.	.	.	16g#JJ	.	.	.
4r	.	.	.	.	.	.	4r	.	16aLL	.	.	.
.	.	.	.	.	.	.	.	.	16b	.	.	.
.	.	.	.	.	.	.	.	.	16cc#	.	.	.
.	.	.	.	.	.	.	.	.	16ddJJ	.	.	.
=59	=59	=59	=59	=59	=59	=59	=59	=59	=59	=59	=59	=59
4A	.	.	2r	.	2r	.	16aLL	.	(>16cc#LL	.	2r	2r
.	.	.	.	.	.	.	16e	.	16b	.	.	.
.	.	.	.	.	.	.	16f#	.	16a	.	.	.
.	.	.	.	.	.	.	16g#JJ	.	16bJJ)	.	.	.
4r	.	.	.	.	.	.	16aLL	.	16cc#LL	.	.	.
.	.	.	.	.	.	.	16b	.	16dd	.	.	.
.	.	.	.	.	.	.	16cc#	.	16ee	.	.	.
.	.	.	.	.	.	.	16ddJJ	.	16ff#JJ	.	.	.
!LO:LB:g=original	!	!	!	!	!	!	!	!	!	!	!	!
=60	=60	=60	=60	=60	=60	=60	=60	=60	=60	=60	=60	=60
8A	.	.	2r	.	2r	.	8cc#	.	16eeLL	.	2r	2r
.	.	.	.	.	.	.	.	.	16ff#	.	.	.
8r	.	.	.	.	.	.	8r	.	16gg#	.	.	.
.	.	.	.	.	.	.	.	.	16aaJJ	.	.	.
16ALL	.	.	.	.	.	.	16cc#LL	.	8ee	.	.	.
16B	.	.	.	.	.	.	16dd	.	.	.	.	.
16c#	.	.	.	.	.	.	16ee	.	8r	.	.	.
16AJJ	.	.	.	.	.	.	16cc#JJ	.	.	.	.	.
!	!	!	!LO:LB:g=original	!	!LO:LB:g=original	!	!	!	!LO:LB:g=original	!	!	!
=61	=61	=61	=61	=61	=61	=61	=61	=61	=61	=61	=61	=61
8BL	4_ 3_	.	8E	et	16eeLL	et	8ddL	.	16eeLL	.	8r	8r
.	.	.	.	.	16ddJJ	.	.	.	16dd	.	.	.
8G#	.	.	8G#	in	16cc#LL	in	8dd	.	16cc#	.	4b	4dd
.	.	.	.	.	16ddJJ	.	.	.	16ddJJ	.	.	.
8E	.	.	16B	sae-	16dd	sae-	8b	.	16gg#LL	.	.	.
.	.	.	16B	-cu-	16dd	-cu-	.	.	16bb	.	.	.
8G#J	x	.	8B	-la	8dd	-la	8bJ	.	16b	.	8e	8b
.	.	.	.	.	.	.	.	.	16ddJJ	.	.	.
!	!	!	!	!	!	!	!LO:LB:g=original	!	!	!	!LO:LB:g=original	!
=62	=62	=62	=62	=62	=62	=62	=62	=62	=62	=62	=62	=62
8A	.	.	2r	.	2r	.	16aLL	.	16cc#LL	.	16aLL	16cc#LL
.	.	.	.	.	.	.	16b	.	16dd	.	16b	16dd
8r	.	.	.	.	.	.	16cc#	.	16ee	.	16cc#	16ee
.	.	.	.	.	.	.	16ddJJ	.	16ff#JJ	.	16ddJJ	16ff#JJ
16ALL	.	.	.	.	.	.	16cc#LL	.	8ee	.	8cc#	8ee
16B	.	.	.	.	.	.	16dd	.	.	.	.	.
16c#	.	.	.	.	.	.	16ee	.	8r	.	8r	8r
16AJJ	.	.	.	.	.	.	16cc#JJ	.	.	.	.	.
=63	=63	=63	=63	=63	=63	=63	=63	=63	=63	=63	=63	=63
*	*	*	*	*	*	*	*tremolo	*	*	*	*	*
8BL	4_ 3_	.	8E	sae-	16eeLL	sae-	8eL 8b	.	16eeLL	.	8r	8r
.	.	.	.	.	16ddJJ	.	.	.	16dd	.	.	.
8G#	.	.	8G#	-cu-	16cc#LL	-cu-	8e 8b	.	16cc#	.	4b	4dd
.	.	.	.	.	16ddJJ	.	.	.	16ddJJ	.	.	.
8E	.	.	8B	-lo-	8dd	-lo-	8e 8b	.	16ddLL	.	.	.
.	.	.	.	.	.	.	.	.	16bb	.	.	.
8G#J	x	.	8B	-rum.	8dd	-rum.	8eJ 8b	.	16b	.	8e	8b
.	.	.	.	.	.	.	.	.	16ddJJ	.	.	.
*	*	*	*	*	*	*	*Xtremolo	*	*	*	*	*
=64	=64	=64	=64	=64	=64	=64	=64	=64	=64	=64	=64	=64
*	*	*	*	*	*	*	*^	*	*	*	*	*
8AL	.	.	4A	A-	4cc#	A-	16aKL	16aKL	.	16cc#LL	.	4a	4cc#
.	.	.	.	.	.	.	8a	8a	.	16b	.	.	.
8A	.	.	.	.	.	.	.	.	.	16cc#	.	.	.
.	.	.	.	.	.	.	8a	8a	.	16aJJ	.	.	.
8F#	6	.	4F#	-men	4dd	.	.	.	.	16ddLL	.	4r	4r
.	.	.	.	.	.	.	8a	8a	.	16cc#	.	.	.
8F#J	.	.	.	.	.	.	.	.	.	16dd	.	.	.
.	.	.	.	.	.	.	16aJk	16aJk	.	16aJJ	.	.	.
*	*	*	*	*	*	*	*v	*v	*	*	*	*	*
=65	=65	=65	=65	=65	=65	=65	=65	=65	=65	=65	=65	=65
8EL/	6	.	4c#	{A-	4ee	.	8aL	.	16eeLL	.	2r	2r
.	.	.	.	.	.	.	.	.	16dd#X	.	.	.
8E	.	.	.	.	.	.	8aJ	.	16ee	.	.	.
.	.	.	.	.	.	.	.	.	16aJJ	.	.	.
8F#	.	.	4d	-men}	4ff#	-men	4d 4a	.	4ff#	.	.	.
8F#J	.	.	.	.	.	.	.	.	.	.	.	.
=66	=66	=66	=66	=66	=66	=66	=66	=66	=66	=66	=66	=66
8r	.	.	8r	.	16ff#LL	A-	(>16ddLL	.	16ff#LL	.	8r	8r
.	.	.	.	.	16ee	.	16cc#	.	16ee	.	.	.
8AL\	.	.	8A	A-	16dd	.	16b	.	16dd	.	8a	8cc#
.	.	.	.	.	16cc#JJ	.	16aJJ)	.	16cc#JJ	.	.	.
8E\	5_ 3_	.	4E	.	16bLL	.	(<16dLL	.	16bLL	.	16eLL	16bLL
.	.	.	.	.	16a	.	16c#	.	16a	.	16c#J	16a
8EEJ/	x	.	.	.	16b	.	16d	.	16b	.	8eJ	16b
.	.	.	.	.	16cc#JJ	.	16eJJ)	.	16cc#JJ	.	.	16cc#JJ
=67	=67	=67	=67	=67	=67	=67	=67	=67	=67	=67	=67	=67
*	*	*	*	*	*2\right	*	*	*	*2\right	*	*	*2\right
*	*	*	*	*	*	*	*	*	*	*	*	*tremolo
8AAL/	.	.	8AA	-men	8a	-men	8c#L	.	8aL	.	8c#L	8aL
8A\	.	.	8AL	A-	8ee	A-	8e 8cc#	.	8cc# 8aa	.	8A	8a
8E\	.	.	8E	.	8cc#	-men	8e 8cc#	.	8cc# 8aa	.	8c#	8a
8C#J\	.	.	8C#J	.	8ee	{A-	8eJ 8cc#	.	8cc#J 8aa	.	8eJ	8aJ
*	*	*	*	*	*	*	*	*	*	*	*	*Xtremolo
=68	=68	=68	=68	=68	=68	=68	=68	=68	=68	=68	=68	=68
2AA	.	.	2AA	-men.	2cc#	-men}	2e 2cc#	.	2cc# 2aa	.	2c#	2a
==	==	==	==	==	==	==	==	==	==	==	==	==
*-	*-	*-	*-	*-	*-	*-	*-	*-	*-	*-	*-	*-
!!!system-decoration: s1,s2,s3,s4,s5,s6,s7
!!!RDF**kern: > = above
!!!RDF**kern: < = below
!!!ENC: Anna Matuszewska
!!!END: 2020-04-13
